src/lib/packages/icons/src/assets/line/plate-utensils.svg

<svg width="24" height="24" viewBox="0 0 24 24" fill="none" xmlns="http://www.w3.org/2000/svg">
<path d="M5.28003 11.57V18.5C5.28003 18.91 4.94003 19.25 4.53003 19.25C4.12003 19.25 3.78003 18.91 3.78003 18.5V11.57C2.33003 11.23 1.25 9.93998 1.25 8.38998V5.49998C1.25 5.08998 1.59 4.74998 2 4.74998C2.41 4.74998 2.75 5.08998 2.75 5.49998V8.38998C2.75 9.09998 3.17003 9.70998 3.78003 9.99998V5.50998C3.78003 5.09998 4.12003 4.75998 4.53003 4.75998C4.94003 4.75998 5.28003 5.09998 5.28003 5.50998V9.99998C5.89003 9.71998 6.31 9.10998 6.31 8.38998V5.49998C6.31 5.08998 6.65 4.74998 7.06 4.74998C7.47 4.74998 7.81 5.08998 7.81 5.49998V8.38998C7.81 9.93998 6.73003 11.23 5.28003 11.57ZM22.75 4.99998V19C22.75 19.41 22.41 19.75 22 19.75C21.59 19.75 21.25 19.41 21.25 19V14.75H18.89C18.26 14.75 17.75 14.24 17.75 13.61V9.66998C17.75 4.31998 21.96 4.24998 22 4.24998C22.41 4.24998 22.75 4.58998 22.75 4.99998ZM21.25 5.89998C20.43 6.19998 19.25 7.06998 19.25 9.66998V13.25H21.25V5.89998ZM17.12 15.57C15.96 17.25 14.04 18.25 12 18.25C9.96 18.25 8.04001 17.25 6.89001 15.58C6.66001 15.24 6.18998 15.15 5.84998 15.39C5.50998 15.62 5.41997 16.09 5.65997 16.43C7.08997 18.51 9.46001 19.76 12.01 19.76C14.56 19.76 16.93 18.52 18.37 16.44C18.61 16.1 18.52 15.63 18.18 15.4C17.84 15.16 17.37 15.25 17.14 15.59L17.12 15.57ZM9.32001 6.34999C10.15 5.94999 11.05 5.73999 11.99 5.73999C13.63 5.73999 15.18 6.36999 16.35 7.51999C16.5 7.65999 16.69 7.73999 16.88 7.73999C17.07 7.73999 17.27 7.66999 17.41 7.51999C17.7 7.21999 17.7 6.74999 17.41 6.45999C15.96 5.02999 14.03 4.23999 11.99 4.23999C10.82 4.23999 9.69997 4.48999 8.65997 4.98999C8.28997 5.16999 8.13 5.61999 8.31 5.98999C8.49 6.35999 8.94 6.51998 9.31 6.33998L9.32001 6.34999ZM11.99 7.73999C14.33 7.73999 16.24 9.64999 16.24 11.99C16.24 14.33 14.33 16.24 11.99 16.24C9.64999 16.24 7.73999 14.33 7.73999 11.99C7.73999 9.64999 9.64999 7.73999 11.99 7.73999ZM11.99 9.23999C10.47 9.23999 9.23999 10.47 9.23999 11.99C9.23999 13.51 10.47 14.74 11.99 14.74C13.51 14.74 14.74 13.51 14.74 11.99C14.74 10.47 13.51 9.23999 11.99 9.23999Z" fill="currentColor"/>
</svg>

<svg xmlns="http://www.w3.org/2000/svg" width="24" height="24" fill="none"><path fill="currentColor" d="M5.28 11.57v6.93c0 .41-.34.75-.75.75s-.75-.34-.75-.75v-6.93a3.27 3.27 0 0 1-2.53-3.18V5.5c0-.41.34-.75.75-.75s.75.34.75.75v2.89c0 .71.42 1.32 1.03 1.61V5.51c0-.41.34-.75.75-.75s.75.34.75.75V10c.61-.28 1.03-.89 1.03-1.61V5.5c0-.41.34-.75.75-.75s.75.34.75.75v2.89a3.27 3.27 0 0 1-2.53 3.18ZM22.75 5v14c0 .41-.34.75-.75.75s-.75-.34-.75-.75v-4.25h-2.36c-.63 0-1.14-.51-1.14-1.14V9.67c0-5.35 4.21-5.42 4.25-5.42.41 0 .75.34.75.75Zm-1.5.9c-.82.3-2 1.17-2 3.77v3.58h2V5.9Zm-4.13 9.67A6.225 6.225 0 0 1 12 18.25c-2.04 0-3.96-1-5.11-2.67a.742.742 0 0 0-1.04-.19c-.34.23-.43.7-.19 1.04a7.698 7.698 0 0 0 6.35 3.33 7.72 7.72 0 0 0 6.36-3.32c.24-.34.15-.81-.19-1.04a.742.742 0 0 0-1.04.19l-.02-.02Zm-7.8-9.22c.83-.4 1.73-.61 2.67-.61 1.64 0 3.19.63 4.36 1.78.15.14.34.22.53.22s.39-.07.53-.22c.29-.3.29-.77 0-1.06a7.682 7.682 0 0 0-5.42-2.22c-1.17 0-2.29.25-3.33.75-.37.18-.53.63-.35 1 .18.37.63.53 1 .35l.01.01Zm2.67 1.39a4.26 4.26 0 0 1 4.25 4.25 4.26 4.26 0 0 1-4.25 4.25 4.26 4.26 0 0 1-4.25-4.25 4.26 4.26 0 0 1 4.25-4.25Zm0 1.5c-1.52 0-2.75 1.23-2.75 2.75s1.23 2.75 2.75 2.75 2.75-1.23 2.75-2.75-1.23-2.75-2.75-2.75Z"/></svg>
